mresponse/frontend/app/public/static/media/icons/cog.svg

<svg width="16" height="16" xmlns="http://www.w3.org/2000/svg" xmlns:xlink="http://www.w3.org/1999/xlink"><defs><path d="M8 5.333A2.675 2.675 0 005.333 8c0 1.467 1.2 2.667 2.667 2.667 1.467 0 2.667-1.2 2.667-2.667 0-1.467-1.2-2.667-2.667-2.667zm0 4c-.733 0-1.333-.6-1.333-1.333S7.267 6.667 8 6.667s1.333.6 1.333 1.333S8.733 9.333 8 9.333zm5.533.934c.067-.134.2-.267.467-.267 1.133 0 2-.867 2-2s-.867-2-2-2h-.133a.367.367 0 01-.334-.2c0-.067 0-.067-.066-.133-.067-.134-.067-.334.133-.534.8-.8.8-2.066 0-2.8-.4-.4-.867-.6-1.4-.6-.533 0-1.067.2-1.467.6a.41.41 0 01-.466.067C10.133 2.4 10 2.2 10 2c0-1.133-.867-2-2-2S6 .867 6 2v.133a.367.367 0 01-.2.334c-.067 0-.067 0-.133.066-.134.067-.334 0-.534-.133-.8-.8-2.066-.8-2.8 0-.8.8-.8 2.067.067 2.867.133.133.133.333.067.533A.563.563 0 012 6.067c-1.133 0-2 .866-2 2 0 1.133.867 2 2 2h.133c.2 0 .334.133.4.266.067.134.067.334-.133.534-.4.4-.6.866-.6 1.4 0 .533.2 1 .6 1.4.8.8 2.067.8 2.867-.067.133-.133.333-.133.533-.067.2.067.267.2.267.467 0 1.133.866 2 2 2 1.133 0 2-.867 2-2v-.133c0-.2.133-.334.266-.4.134-.067.334-.067.534.133.8.8 2.066.8 2.8 0 .8-.8.8-2.067-.067-2.867-.067-.133-.133-.333-.067-.466zm-1.2-.534c-.266.667-.133 1.4.4 2 .134.134.2.267.2.467s-.066.333-.2.467a.605.605 0 01-.466.2c-.2 0-.334-.067-.534-.267-.533-.533-1.266-.667-1.933-.333-.667.266-1.067.933-1.067 1.6V14c0 .4-.266.667-.666.667S7.4 14.4 7.4 14v-.067c0-.733-.467-1.333-1.133-1.6-.2-.133-.467-.133-.734-.133-.466 0-.933.2-1.266.533a.644.644 0 01-.934 0 .605.605 0 01-.2-.466c0-.2.067-.334.267-.534.533-.533.667-1.266.333-1.933-.266-.667-.933-1.067-1.6-1.067H2c-.4 0-.667-.266-.667-.666S1.6 7.4 2 7.4h.067c.733 0 1.333-.467 1.6-1.133.266-.667.133-1.4-.4-2a.644.644 0 010-.934c.266-.266.666-.266 1 .067.466.467 1.2.6 1.8.4.066 0 .133 0 .2-.067.666-.266 1.066-.933 1.066-1.6V2c0-.4.267-.667.667-.667s.667.267.667.734c0 .733.4 1.333 1.066 1.6.667.266 1.4.133 2-.4a.605.605 0 01.467-.2c.2 0 .333.066.467.2.266.266.266.666-.067 1-.467.466-.6 1.2-.4 1.8 0 .066 0 .133.067.2.266.666.933 1.066 1.6 1.066H14c.4 0 .667.267.667.667s-.267.667-.734.667c-.666 0-1.333.4-1.6 1.066z" id="a"/></defs><g fill="none" fill-rule="evenodd"><path d="M8 5.333A2.675 2.675 0 005.333 8c0 1.467 1.2 2.667 2.667 2.667 1.467 0 2.667-1.2 2.667-2.667 0-1.467-1.2-2.667-2.667-2.667zm0 4c-.733 0-1.333-.6-1.333-1.333S7.267 6.667 8 6.667s1.333.6 1.333 1.333S8.733 9.333 8 9.333zm5.533.934c.067-.134.2-.267.467-.267 1.133 0 2-.867 2-2s-.867-2-2-2h-.133a.367.367 0 01-.334-.2c0-.067 0-.067-.066-.133-.067-.134-.067-.334.133-.534.8-.8.8-2.066 0-2.8-.4-.4-.867-.6-1.4-.6-.533 0-1.067.2-1.467.6a.41.41 0 01-.466.067C10.133 2.4 10 2.2 10 2c0-1.133-.867-2-2-2S6 .867 6 2v.133a.367.367 0 01-.2.334c-.067 0-.067 0-.133.066-.134.067-.334 0-.534-.133-.8-.8-2.066-.8-2.8 0-.8.8-.8 2.067.067 2.867.133.133.133.333.067.533A.563.563 0 012 6.067c-1.133 0-2 .866-2 2 0 1.133.867 2 2 2h.133c.2 0 .334.133.4.266.067.134.067.334-.133.534-.4.4-.6.866-.6 1.4 0 .533.2 1 .6 1.4.8.8 2.067.8 2.867-.067.133-.133.333-.133.533-.067.2.067.267.2.267.467 0 1.133.866 2 2 2 1.133 0 2-.867 2-2v-.133c0-.2.133-.334.266-.4.134-.067.334-.067.534.133.8.8 2.066.8 2.8 0 .8-.8.8-2.067-.067-2.867-.067-.133-.133-.333-.067-.466zm-1.2-.534c-.266.667-.133 1.4.4 2 .134.134.2.267.2.467s-.066.333-.2.467a.605.605 0 01-.466.2c-.2 0-.334-.067-.534-.267-.533-.533-1.266-.667-1.933-.333-.667.266-1.067.933-1.067 1.6V14c0 .4-.266.667-.666.667S7.4 14.4 7.4 14v-.067c0-.733-.467-1.333-1.133-1.6-.2-.133-.467-.133-.734-.133-.466 0-.933.2-1.266.533a.644.644 0 01-.934 0 .605.605 0 01-.2-.466c0-.2.067-.334.267-.534.533-.533.667-1.266.333-1.933-.266-.667-.933-1.067-1.6-1.067H2c-.4 0-.667-.266-.667-.666S1.6 7.4 2 7.4h.067c.733 0 1.333-.467 1.6-1.133.266-.667.133-1.4-.4-2a.644.644 0 010-.934c.266-.266.666-.266 1 .067.466.467 1.2.6 1.8.4.066 0 .133 0 .2-.067.666-.266 1.066-.933 1.066-1.6V2c0-.4.267-.667.667-.667s.667.267.667.734c0 .733.4 1.333 1.066 1.6.667.266 1.4.133 2-.4a.605.605 0 01.467-.2c.2 0 .333.066.467.2.266.266.266.666-.067 1-.467.466-.6 1.2-.4 1.8 0 .066 0 .133.067.2.266.666.933 1.066 1.6 1.066H14c.4 0 .667.267.667.667s-.267.667-.734.667c-.666 0-1.333.4-1.6 1.066z" fill="#000" fill-rule="nonzero"/><g><mask id="b" fill="#fff"><use xlink:href="#a"/></mask><g mask="url(#b)" fill="#000" fill-rule="nonzero"><path d="M0 0h16.101v16.254H0z"/></g></g></g></svg>

<?xml version="1.0" encoding="UTF-8"?>
<svg width="16px" height="16px" viewBox="0 0 16 16" version="1.1" xmlns="http://www.w3.org/2000/svg" xmlns:xlink="http://www.w3.org/1999/xlink">
    <!-- Generator: Sketch 51.2 (57519) - http://www.bohemiancoding.com/sketch -->
    <title>Group</title>
    <desc>Created with Sketch.</desc>
    <defs>
        <path d="M8,5.333 C6.52888008,5.33739307 5.33739307,6.52888008 5.333,8 C5.333,9.467 6.533,10.667 8,10.667 C9.467,10.667 10.667,9.467 10.667,8 C10.667,6.533 9.467,5.333 8,5.333 Z M8,9.333 C7.267,9.333 6.667,8.733 6.667,8 C6.667,7.267 7.267,6.667 8,6.667 C8.733,6.667 9.333,7.267 9.333,8 C9.333,8.733 8.733,9.333 8,9.333 Z M13.533,10.267 C13.6,10.133 13.733,10 14,10 C15.133,10 16,9.133 16,8 C16,6.867 15.133,6 14,6 L13.867,6 C13.7265675,6.00274091 13.596888,5.92508849 13.533,5.8 C13.533,5.733 13.533,5.733 13.467,5.667 C13.4,5.533 13.4,5.333 13.6,5.133 C14.4,4.333 14.4,3.067 13.6,2.333 C13.2,1.933 12.733,1.733 12.2,1.733 C11.667,1.733 11.133,1.933 10.733,2.333 C10.6072459,2.45117742 10.4209544,2.47796181 10.267,2.4 C10.133,2.4 10,2.2 10,2 C10,0.867 9.133,0 8,0 C6.867,0 6,0.867 6,2 L6,2.133 C6.00274091,2.2734325 5.92508849,2.40311205 5.8,2.467 C5.733,2.467 5.733,2.467 5.667,2.533 C5.533,2.6 5.333,2.533 5.133,2.4 C4.333,1.6 3.067,1.6 2.333,2.4 C1.533,3.2 1.533,4.467 2.4,5.267 C2.533,5.4 2.533,5.6 2.467,5.8 C2.4,5.933 2.2,6.067 2,6.067 C0.867,6.067 1.33226763e-15,6.933 1.33226763e-15,8.067 C1.33226763e-15,9.2 0.867,10.067 2,10.067 L2.133,10.067 C2.333,10.067 2.467,10.2 2.533,10.333 C2.6,10.467 2.6,10.667 2.4,10.867 C2,11.267 1.8,11.733 1.8,12.267 C1.8,12.8 2,13.267 2.4,13.667 C3.2,14.467 4.467,14.467 5.267,13.6 C5.4,13.467 5.6,13.467 5.8,13.533 C6,13.6 6.067,13.733 6.067,14 C6.067,15.133 6.933,16 8.067,16 C9.2,16 10.067,15.133 10.067,14 L10.067,13.867 C10.067,13.667 10.2,13.533 10.333,13.467 C10.467,13.4 10.667,13.4 10.867,13.6 C11.667,14.4 12.933,14.4 13.667,13.6 C14.467,12.8 14.467,11.533 13.6,10.733 C13.533,10.6 13.467,10.4 13.533,10.267 Z M12.333,9.733 C12.067,10.4 12.2,11.133 12.733,11.733 C12.867,11.867 12.933,12 12.933,12.2 C12.933,12.4 12.867,12.533 12.733,12.667 C12.6144493,12.7986905 12.4441263,12.8717905 12.267,12.867 C12.067,12.867 11.933,12.8 11.733,12.6 C11.2,12.067 10.467,11.933 9.8,12.267 C9.133,12.533 8.733,13.2 8.733,13.867 L8.733,14 C8.733,14.4 8.467,14.667 8.067,14.667 C7.667,14.667 7.4,14.4 7.4,14 L7.4,13.933 C7.4,13.2 6.933,12.6 6.267,12.333 C6.067,12.2 5.8,12.2 5.533,12.2 C5.067,12.2 4.6,12.4 4.267,12.733 C4.14541081,12.8610466 3.97657824,12.933551 3.8,12.933551 C3.62342176,12.933551 3.45458919,12.8610466 3.333,12.733 C3.20130945,12.6144493 3.12820948,12.4441263 3.133,12.267 C3.133,12.067 3.2,11.933 3.4,11.733 C3.933,11.2 4.067,10.467 3.733,9.8 C3.467,9.133 2.8,8.733 2.133,8.733 L2,8.733 C1.6,8.733 1.333,8.467 1.333,8.067 C1.333,7.667 1.6,7.4 2,7.4 L2.067,7.4 C2.8,7.4 3.4,6.933 3.667,6.267 C3.933,5.6 3.8,4.867 3.267,4.267 C3.13895336,4.14541081 3.06644898,3.97657824 3.06644898,3.8 C3.06644898,3.62342176 3.13895336,3.45458919 3.267,3.333 C3.533,3.067 3.933,3.067 4.267,3.4 C4.733,3.867 5.467,4 6.067,3.8 C6.133,3.8 6.2,3.8 6.267,3.733 C6.933,3.467 7.333,2.8 7.333,2.133 L7.333,2 C7.333,1.6 7.6,1.333 8,1.333 C8.4,1.333 8.667,1.6 8.667,2.067 C8.667,2.8 9.067,3.4 9.733,3.667 C10.4,3.933 11.133,3.8 11.733,3.267 C11.8517795,3.13503932 12.022528,3.06191363 12.2,3.067 C12.4,3.067 12.533,3.133 12.667,3.267 C12.933,3.533 12.933,3.933 12.6,4.267 C12.133,4.733 12,5.467 12.2,6.067 C12.2,6.133 12.2,6.2 12.267,6.267 C12.533,6.933 13.2,7.333 13.867,7.333 L14,7.333 C14.4,7.333 14.667,7.6 14.667,8 C14.667,8.4 14.4,8.667 13.933,8.667 C13.267,8.667 12.6,9.067 12.333,9.733 Z" id="path-1"></path>
    </defs>
    <g id="Page-1" stroke="none" stroke-width="1" fill="none" fill-rule="evenodd">
        <g id="cog" transform="translate(-139.000000, -536.000000)">
            <g id="Group" transform="translate(139.000000, 536.000000)">
                <g id="a-link" fill="#000000" fill-rule="nonzero">
                    <path d="M8,5.333 C6.52888008,5.33739307 5.33739307,6.52888008 5.333,8 C5.333,9.467 6.533,10.667 8,10.667 C9.467,10.667 10.667,9.467 10.667,8 C10.667,6.533 9.467,5.333 8,5.333 Z M8,9.333 C7.267,9.333 6.667,8.733 6.667,8 C6.667,7.267 7.267,6.667 8,6.667 C8.733,6.667 9.333,7.267 9.333,8 C9.333,8.733 8.733,9.333 8,9.333 Z M13.533,10.267 C13.6,10.133 13.733,10 14,10 C15.133,10 16,9.133 16,8 C16,6.867 15.133,6 14,6 L13.867,6 C13.7265675,6.00274091 13.596888,5.92508849 13.533,5.8 C13.533,5.733 13.533,5.733 13.467,5.667 C13.4,5.533 13.4,5.333 13.6,5.133 C14.4,4.333 14.4,3.067 13.6,2.333 C13.2,1.933 12.733,1.733 12.2,1.733 C11.667,1.733 11.133,1.933 10.733,2.333 C10.6072459,2.45117742 10.4209544,2.47796181 10.267,2.4 C10.133,2.4 10,2.2 10,2 C10,0.867 9.133,0 8,0 C6.867,0 6,0.867 6,2 L6,2.133 C6.00274091,2.2734325 5.92508849,2.40311205 5.8,2.467 C5.733,2.467 5.733,2.467 5.667,2.533 C5.533,2.6 5.333,2.533 5.133,2.4 C4.333,1.6 3.067,1.6 2.333,2.4 C1.533,3.2 1.533,4.467 2.4,5.267 C2.533,5.4 2.533,5.6 2.467,5.8 C2.4,5.933 2.2,6.067 2,6.067 C0.867,6.067 1.33226763e-15,6.933 1.33226763e-15,8.067 C1.33226763e-15,9.2 0.867,10.067 2,10.067 L2.133,10.067 C2.333,10.067 2.467,10.2 2.533,10.333 C2.6,10.467 2.6,10.667 2.4,10.867 C2,11.267 1.8,11.733 1.8,12.267 C1.8,12.8 2,13.267 2.4,13.667 C3.2,14.467 4.467,14.467 5.267,13.6 C5.4,13.467 5.6,13.467 5.8,13.533 C6,13.6 6.067,13.733 6.067,14 C6.067,15.133 6.933,16 8.067,16 C9.2,16 10.067,15.133 10.067,14 L10.067,13.867 C10.067,13.667 10.2,13.533 10.333,13.467 C10.467,13.4 10.667,13.4 10.867,13.6 C11.667,14.4 12.933,14.4 13.667,13.6 C14.467,12.8 14.467,11.533 13.6,10.733 C13.533,10.6 13.467,10.4 13.533,10.267 Z M12.333,9.733 C12.067,10.4 12.2,11.133 12.733,11.733 C12.867,11.867 12.933,12 12.933,12.2 C12.933,12.4 12.867,12.533 12.733,12.667 C12.6144493,12.7986905 12.4441263,12.8717905 12.267,12.867 C12.067,12.867 11.933,12.8 11.733,12.6 C11.2,12.067 10.467,11.933 9.8,12.267 C9.133,12.533 8.733,13.2 8.733,13.867 L8.733,14 C8.733,14.4 8.467,14.667 8.067,14.667 C7.667,14.667 7.4,14.4 7.4,14 L7.4,13.933 C7.4,13.2 6.933,12.6 6.267,12.333 C6.067,12.2 5.8,12.2 5.533,12.2 C5.067,12.2 4.6,12.4 4.267,12.733 C4.14541081,12.8610466 3.97657824,12.933551 3.8,12.933551 C3.62342176,12.933551 3.45458919,12.8610466 3.333,12.733 C3.20130945,12.6144493 3.12820948,12.4441263 3.133,12.267 C3.133,12.067 3.2,11.933 3.4,11.733 C3.933,11.2 4.067,10.467 3.733,9.8 C3.467,9.133 2.8,8.733 2.133,8.733 L2,8.733 C1.6,8.733 1.333,8.467 1.333,8.067 C1.333,7.667 1.6,7.4 2,7.4 L2.067,7.4 C2.8,7.4 3.4,6.933 3.667,6.267 C3.933,5.6 3.8,4.867 3.267,4.267 C3.13895336,4.14541081 3.06644898,3.97657824 3.06644898,3.8 C3.06644898,3.62342176 3.13895336,3.45458919 3.267,3.333 C3.533,3.067 3.933,3.067 4.267,3.4 C4.733,3.867 5.467,4 6.067,3.8 C6.133,3.8 6.2,3.8 6.267,3.733 C6.933,3.467 7.333,2.8 7.333,2.133 L7.333,2 C7.333,1.6 7.6,1.333 8,1.333 C8.4,1.333 8.667,1.6 8.667,2.067 C8.667,2.8 9.067,3.4 9.733,3.667 C10.4,3.933 11.133,3.8 11.733,3.267 C11.8517795,3.13503932 12.022528,3.06191363 12.2,3.067 C12.4,3.067 12.533,3.133 12.667,3.267 C12.933,3.533 12.933,3.933 12.6,4.267 C12.133,4.733 12,5.467 12.2,6.067 C12.2,6.133 12.2,6.2 12.267,6.267 C12.533,6.933 13.2,7.333 13.867,7.333 L14,7.333 C14.4,7.333 14.667,7.6 14.667,8 C14.667,8.4 14.4,8.667 13.933,8.667 C13.267,8.667 12.6,9.067 12.333,9.733 Z" id="a"></path>
                </g>
                <g id="Clipped">
                    <mask id="mask-2" fill="white">
                        <use xlink:href="#path-1"></use>
                    </mask>
                    <g id="a"></g>
                    <g id="Group" mask="url(#mask-2)" fill="#000000" fill-rule="nonzero">
                        <polygon id="Shape" points="0 0 16.101 0 16.101 16.254 0 16.254"></polygon>
                    </g>
                </g>
            </g>
        </g>
    </g>
</svg>
